symbols/web/category/materialsymbolsoutlined/category_fill1_48px.svg

<svg xmlns="http://www.w3.org/2000/svg" height="48" width="48"><path d="M13.05 21.7 24.05 4 35.05 21.7ZM35.3 44Q31.6 44 29.1 41.5Q26.6 39 26.6 35.3Q26.6 31.6 29.1 29.1Q31.6 26.6 35.3 26.6Q39 26.6 41.5 29.1Q44 31.6 44 35.3Q44 39 41.5 41.5Q39 44 35.3 44ZM6 42.75V27.55H21.2V42.75Z"/></svg>

<svg xmlns="http://www.w3.org/2000/svg" height="48" width="48"><path d="m13.05 21.7 11-17.7 11 17.7ZM35.3 44q-3.7 0-6.2-2.5t-2.5-6.2q0-3.7 2.5-6.2t6.2-2.5q3.7 0 6.2 2.5t2.5 6.2q0 3.7-2.5 6.2T35.3 44ZM6 42.75v-15.2h15.2v15.2Z"/></svg>
